src/images/fire.svg

<svg width="15" height="20" viewBox="0 0 22 30" fill="none" xmlns="http://www.w3.org/2000/svg">
<path d="M20.5397 15.5556C20.2739 14.9601 19.9072 14.3738 19.371 13.6965C18.0189 11.9965 17.6064 8.20557 17.6018 8.1692C17.5835 7.98739 17.4551 7.83739 17.2855 7.78284C17.1114 7.7283 16.9235 7.7783 16.7997 7.91466C15.1864 9.7192 15.8647 12.5056 16.2314 13.6192C16.3322 13.9238 16.4422 14.2828 16.5201 14.6465C17.1159 17.5874 15.9655 18.9192 15.6951 19.1874C15.4338 19.2601 15.2551 19.2238 15.0901 19.0465C14.5217 18.4238 14.3338 16.3828 14.5997 13.7238C14.6547 13.1828 14.6409 12.6965 14.563 12.2419C14.0024 8.97361 11.9467 6.87716 11.4234 6.14193C9.98424 4.01466 9.83758 0.47375 9.83299 0.441932C9.82841 0.27375 9.73216 0.12375 9.58091 0.0510227C9.43424 -0.0217046 9.25549 -0.0126137 9.11799 0.0828409C6.71633 1.71466 6.92258 5.64648 7.25716 7.84193C7.33508 8.35102 7.48633 8.86921 7.74758 9.52375C8.67799 11.8647 7.56424 14.8874 7.55508 14.9147C7.54591 14.9419 7.53674 14.9647 7.53216 14.9919C7.39008 15.7374 7.15174 16.1828 6.88591 16.1828C6.85841 16.1828 6.83091 16.1783 6.79883 16.1692C6.47341 16.101 6.30383 15.7556 6.29924 15.4556C6.28091 11.5783 2.38966 10.2738 2.34841 10.2601C2.17424 10.2056 1.98174 10.2556 1.86258 10.3965C1.73883 10.5374 1.71591 10.7328 1.79841 10.8965C1.84424 10.9919 1.99091 11.4101 1.89008 12.8874C1.80299 14.2147 1.56008 15.5283 1.17049 16.7874C0.244659 19.8056 0.391326 22.6647 0.400492 22.801C1.11242 30.5423 12.2456 31.8987 18.853 27.5374C19.5772 27.0601 20.1684 26.5147 20.6038 25.9147C23.0422 22.551 21.6076 17.9828 20.5397 15.5556ZM3.60429 22.951C3.61804 23.201 3.42554 23.4147 3.17345 23.4283H3.14595C2.90304 23.4283 2.70137 23.2419 2.68762 23.001C2.64637 22.3374 2.65554 21.6419 2.70595 20.8874C2.72429 20.6374 2.94429 20.451 3.19637 20.4646C3.44845 20.4828 3.64095 20.701 3.62262 20.951C3.57216 21.6692 3.56304 22.3238 3.60429 22.951ZM3.82883 18.9238C3.80133 19.1556 3.60424 19.3238 3.37508 19.3238C3.35674 19.3238 3.33841 19.3238 3.31549 19.3192C3.06799 19.2874 2.88924 19.0647 2.91674 18.8147L3.13674 17.0601C3.16883 16.8147 3.39341 16.6374 3.65007 16.6647C3.90216 16.6965 4.08091 16.9237 4.04883 17.1737L3.82883 18.9238Z" fill="#FF6B09"/>
<path d="M17.4391 6.21861C17.1891 6.1802 17.0177 5.94851 17.0562 5.70061C17.0848 5.51592 17.2504 4.57047 17.6998 4.09506C17.8728 3.91174 18.1624 3.9022 18.3477 4.07442C18.5323 4.24597 18.5417 4.53365 18.3685 4.71697C18.1783 4.91829 18.0163 5.49442 17.9621 5.83915C17.9234 6.08442 17.6928 6.25656 17.4391 6.21861Z" fill="#FF6B09"/>
<path d="M0.729802 8.48269C0.642077 8.14464 0.424093 7.58714 0.214864 7.40514C0.0244267 7.23955 0.00540581 6.95237 0.172331 6.76373C0.338843 6.57464 0.628189 6.55532 0.819085 6.72155C1.31298 7.151 1.57103 8.07587 1.61782 8.25673C1.68048 8.49978 1.5328 8.747 1.28796 8.8096C1.03771 8.872 0.792181 8.72169 0.729802 8.48269Z" fill="#FF6B09"/>
</svg>

<svg width="15" height="20" viewBox="0 0 22 30" fill="none" xmlns="http://www.w3.org/2000/svg"><path d="M20.54 15.556c-.266-.596-.633-1.182-1.169-1.86-1.352-1.7-1.765-5.49-1.77-5.527a.457.457 0 0 0-.316-.386.465.465 0 0 0-.485.132c-1.614 1.804-.935 4.59-.569 5.704.101.305.211.664.29 1.027.595 2.941-.556 4.273-.826 4.541-.261.073-.44.037-.605-.14-.568-.623-.756-2.664-.49-5.323a5.441 5.441 0 0 0-.037-1.482c-.56-3.268-2.616-5.365-3.14-6.1C9.984 4.015 9.838.474 9.833.442a.458.458 0 0 0-.715-.36c-2.402 1.633-2.195 5.564-1.86 7.76.077.509.228 1.027.49 1.682.93 2.34-.184 5.363-.193 5.39-.01.028-.018.05-.023.078-.142.745-.38 1.19-.646 1.19a.313.313 0 0 1-.087-.013c-.326-.068-.495-.413-.5-.713-.018-3.878-3.91-5.182-3.95-5.196a.456.456 0 0 0-.486.136.447.447 0 0 0-.065.5c.046.096.193.514.092 1.991a16.978 16.978 0 0 1-.72 3.9C.245 19.806.391 22.665.4 22.801c.712 7.741 11.846 9.098 18.453 4.736.724-.477 1.315-1.022 1.75-1.622 2.44-3.364 1.005-7.932-.063-10.36ZM3.604 22.95a.454.454 0 0 1-.43.477h-.028a.456.456 0 0 1-.458-.427c-.042-.664-.032-1.36.018-2.114a.463.463 0 0 1 .49-.422.458.458 0 0 1 .427.486c-.05.718-.06 1.373-.019 2Zm.225-4.027a.455.455 0 0 1-.454.4c-.018 0-.037 0-.06-.005a.458.458 0 0 1-.398-.504l.22-1.755a.463.463 0 0 1 .513-.395c.252.032.43.259.399.509l-.22 1.75ZM17.44 6.219a.455.455 0 0 1-.384-.518c.029-.185.194-1.13.644-1.606a.46.46 0 0 1 .648-.02c.184.171.194.459.02.642-.19.201-.352.777-.406 1.122a.458.458 0 0 1-.523.38ZM.73 8.483C.642 8.145.424 7.587.215 7.405a.452.452 0 0 1-.043-.641.46.46 0 0 1 .647-.042c.494.429.752 1.354.799 1.535a.454.454 0 0 1-.33.553.46.46 0 0 1-.558-.327Z" fill="#FF6B09"/></svg>
